X: 295
T:Honor, decus, imperium
N: Derived from Jos2607-Honor_decus_imperium.krn
C: Josquin des Prez
%%abc-version 2.0
%%abcx-abcm2ps-target-version 5.9.1 (29 Sep 2008)
%%abc-creator hum2abc beta
%%abcx-conversion-date 2019/02/12 16:15:53
%%abc-edited-by Jesse Rodin
%%abc-edited-by Jesse Rodin; Victoria Chang 2011/05/10
%%abcx-initial-encoding-date 2011/04/06/
%%humdrum-veritas 3879266330
%%humdrum-veritas-data 802345507
%%linebreak <none>
%%barnumbers 0
L: 1/4
M: 3/1
Q: 1/2=120
%%staves [1 2 3 4]
V: 1 clef=treble
V: 2 clef=treble-8
V: 3 clef=treble-8
V: 4 clef=bass
K: F
[V:1] z12 | 
[V:2] z4F4A4- | 
[V:3] z4z4F4 | 
[V:4] F,4A,8 | 
[V:1] F4A8 | 
[V:2] A4F4f4- | 
[V:3] A8F4 | 
[V:4] D,12- | 
[V:1] F4A2G2B4- | 
[V:2] f2d2e4f3e | 
[V:3] A3=Bc4d4 | 
[V:4] D,4C,4B,,4 | 
[V:1] B2A3GG4^F2 | 
[V:2] d2c2B2c2d4 | 
[V:3] B2c2G4A4 | 
[V:4] z2F,2G,2E,2D,4 | 
[V:1] G8z4 | 
[V:2] z4G8 | 
[V:3] G6B4c2 | 
[V:4] _E,8E,4 | 
[V:1] F4G4A4 | 
[V:2] A4c6f2- | 
[V:3] d4_e4c4 | 
[V:4] D,4C,4F,4 | 
[V:1] F4G2A3GA=B | 
[V:2] fedcB2c2d2f2 | 
[V:3] d4e2f4d2 | 
[V:4] B,3A,G,2F,2D,4 | 
[V:1] c2e3dd4^c2 | 
[V:2] e2a3fg2a4 | 
[V:3] e2c2d4e4 | 
[V:4] A,4B,4A,4 | 
[V:1] d12 | 
[V:2] f2B4A2B2AG | 
[V:3] d4z4d4 | 
[V:4] B,3A,G,2F,2G,2F,E, | 
[V:1] z4z4d4 | 
[V:2] A2B3GA2B4- | 
[V:3] d4_e4d4- | 
[V:4] D,4C,4B,,4- | 
[V:1] d4_e4d4 | 
[V:2] B4z2G3AB2 | 
[V:3] d4c4B4 | 
[V:4] B,,4C,4z2G,2 | 
[V:1] c4c2B2A4 | 
[V:2] c2f4d2f4 | 
[V:3] A6G2A2c2- | 
[V:4] A,2F,4G,2F,3E, | 
[V:1] G6A3FGA | 
[V:2] e2dcd2e2f2g2 | 
[V:3] c2BAB2c2d2_e2 | 
[V:4] C,4z4z2C,2 | 
[V:1] B2A3GG4^F2 | 
[V:2] f6d6 | 
[V:3] d4c2B2A4 | 
[V:4] D,3E,F,2G,2D,4 | 
[V:1] G12 | 
[V:2] B6AGd3e | 
[V:3] G8z4 | 
[V:4] D4z4G,4 | 
[V:1] z4z4F4 | 
[V:2] f4c4d4 | 
[V:3] F4A8 | 
[V:4] A,8D,4- | 
[V:1] A6F2G3A | 
[V:2] (3:2:6d4c2A4B2c2g4 | 
[V:3] F4c2d2_e4 | 
[V:4] D,2F,3E,D,2C,4 | 
[V:1] B2A3GG4^F2 | 
[V:2] (3:2:4f4d2B2c4d4- | 
[V:3] d4G4A4 | 
[V:4] D,4_E,4D,4 | 
[V:1] G12 |]  
[V:2] d12 |]  
[V:3] G12 |]  
[V:4] G,12 |]  



